X:178
T: Alter Ruf zu Christo
N: A0540
O: Europa, Mitteleuropa, Deutschland
N: Mainzer Cantual 1605.
R: Romanze, Ballade, Lied, religioeses Lied
M: 3/2
L: 1/2
K: Bb
b | bbb | agb | afg | d2
b | bbb | agb | afg | d2
g | fgf | dBd | fgf | d2

